cdn/fa/svgs/sharp-regular/arrow-down-to-line.svg

<svg xmlns="http://www.w3.org/2000/svg" viewBox="0 0 384 512"><!--! Font Awesome Pro 6.5.2 by @fontawesome - https://fontawesome.com License - https://fontawesome.com/license (Commercial License) Copyright 2024 Fonticons, Inc. --><path d="M24 480L0 480l0-48 24 0 336 0 24 0 0 48-24 0L24 480zM209.5 344.4L192 363l-17.5-18.6-128-136L30.1 191l35-32.9 16.4 17.5L168 267.5l0-83.5 0-128 0-24 48 0 0 24 0 128 0 83.5 86.5-91.9L319 158.1l35 32.9-16.4 17.5-128 136z"/></svg>

<svg xmlns="http://www.w3.org/2000/svg" viewBox="0 0 384 512"><!--! Font Awesome Pro 6.5.1 by @fontawesome - https://fontawesome.com License - https://fontawesome.com/license (Commercial License) Copyright 2023 Fonticons, Inc. --><path d="M24 480H0V432H24 360h24v48H360 24zM209.5 344.4L192 363l-17.5-18.6-128-136L30.1 191l35-32.9 16.4 17.5L168 267.5V184 56 32h48V56 184v83.5l86.5-91.9L319 158.1l35 32.9-16.4 17.5-128 136z"/></svg>
